X:1963
T:Fiona Blakey's Reel
O:england
M:4/4
L:1/8
Q:160
C:Stephen P. McNally
R:Scots Reel
K:AMix
|:ea~a2edcA|BcdB ecfd|ea~a2edcA|BcdB cA~A2:|
|cA~A2fAeA|BcdB ecfd|cA~A2fAeA|BcdB cA~A2|
|cA~A2fAeA|BcdB ecfd|cAdB ecfd|ef^ge aA~A2||


